main/images/icons/techpage/tech_header.svg

<?xml version="1.0" encoding="iso-8859-1"?>
<!-- Generator: Adobe Illustrator 18.0.0, SVG Export Plug-In . SVG Version: 6.00 Build 0)  -->
<!DOCTYPE svg PUBLIC "-//W3C//DTD SVG 1.1//EN" "http://www.w3.org/Graphics/SVG/1.1/DTD/svg11.dtd">
<svg version="1.1" id="Capa_1" xmlns="http://www.w3.org/2000/svg" xmlns:xlink="http://www.w3.org/1999/xlink" x="0px" y="0px"
	 viewBox="0 0 477.08 477.08" style="enable-background:new 0 0 477.08 477.08;" xml:space="preserve">
<g>
	<path d="M477.064,203.08c0-10.801-8.759-19.56-19.56-19.56h-40.182c-3.487-11.337-8.061-22.175-13.526-32.48l28.465-28.465
		c3.673-3.673,5.731-8.65,5.731-13.837s-2.066-10.164-5.731-13.837l-50.128-50.106c-7.641-7.64-20.026-7.64-27.667,0l-28.465,28.465
		c-10.303-5.459-21.143-10.024-32.472-13.511V19.575c0-10.809-8.759-19.567-19.568-19.567h-70.86
		c-10.801,0-19.56,8.759-19.56,19.567V59.75c-11.337,3.486-22.184,8.06-32.488,13.518l-28.457-28.458
		c-7.633-7.64-20.025-7.64-27.666-0.008L44.818,94.916c-7.633,7.633-7.633,20.041,0,27.673l28.458,28.458
		c-5.466,10.297-10.04,21.143-13.526,32.472h-40.19C8.759,183.52,0,192.279,0,203.087v70.876c0,10.801,8.759,19.56,19.559,19.56
		h40.182c3.479,11.337,8.052,22.184,13.518,32.478L44.802,354.46c-7.64,7.641-7.64,20.034,0,27.673l50.114,50.114
		c7.64,7.641,20.033,7.641,27.674,0l28.443-28.443c10.311,5.475,21.166,10.049,32.51,13.534v40.167
		c0,10.809,8.759,19.566,19.56,19.566h70.86c10.809,0,19.568-8.757,19.568-19.566v-40.167c11.345-3.486,22.199-8.059,32.51-13.534
		l28.451,28.451c3.673,3.672,8.649,5.729,13.836,5.729c5.187,0,10.165-2.058,13.836-5.729l50.106-50.106
		c7.633-7.641,7.633-20.034,0-27.665l-28.465-28.466c5.474-10.303,10.047-21.158,13.526-32.494h40.182
		c5.187,0,10.165-2.058,13.836-5.731c3.665-3.672,5.731-8.649,5.731-13.836L477.064,203.08z M238.532,362.683
		c-68.446,0-124.134-55.689-124.134-124.143c0-68.446,55.688-124.134,124.134-124.134c68.454,0,124.143,55.688,124.143,124.134
		C362.675,306.994,306.986,362.683,238.532,362.683z"/>
	<path d="M238.532,146.21c-50.912,0-92.329,41.417-92.329,92.329c0,50.914,41.417,92.339,92.329,92.339
		c50.914,0,92.339-41.425,92.339-92.339C330.871,187.627,289.446,146.21,238.532,146.21z"/>
</g>
<g>
</g>
<g>
</g>
<g>
</g>
<g>
</g>
<g>
</g>
<g>
</g>
<g>
</g>
<g>
</g>
<g>
</g>
<g>
</g>
<g>
</g>
<g>
</g>
<g>
</g>
<g>
</g>
<g>
</g>
</svg>

<?xml version="1.0" encoding="UTF-8"?>
<svg width="478px" height="478px" viewBox="0 0 478 478" version="1.1" xmlns="http://www.w3.org/2000/svg" xmlns:xlink="http://www.w3.org/1999/xlink">
    <!-- Generator: Sketch 46.2 (44496) - http://www.bohemiancoding.com/sketch -->
    <title>tech_header</title>
    <desc>Created with Sketch.</desc>
    <defs></defs>
    <g id="Page-1" stroke="none" stroke-width="1" fill="none" fill-rule="evenodd">
        <g id="tech_header" fill-rule="nonzero" fill="#4BE4C4">
            <path d="M477.064,203.08 C477.064,192.279 468.305,183.52 457.504,183.52 L417.322,183.52 C413.835,172.183 409.261,161.345 403.796,151.04 L432.261,122.575 C435.934,118.902 437.992,113.925 437.992,108.738 C437.992,103.551 435.926,98.574 432.261,94.901 L382.133,44.795 C374.492,37.155 362.107,37.155 354.466,44.795 L326.001,73.26 C315.698,67.801 304.858,63.236 293.529,59.749 L293.529,19.575 C293.529,8.766 284.77,0.008 273.961,0.008 L203.101,0.008 C192.3,0.008 183.541,8.767 183.541,19.575 L183.541,59.75 C172.204,63.236 161.357,67.81 151.053,73.268 L122.596,44.81 C114.963,37.17 102.571,37.17 94.93,44.802 L44.818,94.916 C37.185,102.549 37.185,114.957 44.818,122.589 L73.276,151.047 C67.81,161.344 63.236,172.19 59.75,183.519 L19.56,183.519 C8.759,183.52 0,192.279 0,203.087 L0,273.963 C0,284.764 8.759,293.523 19.559,293.523 L59.741,293.523 C63.22,304.86 67.793,315.707 73.259,326.001 L44.802,354.46 C37.162,362.101 37.162,374.494 44.802,382.133 L94.916,432.247 C102.556,439.888 114.949,439.888 122.59,432.247 L151.033,403.804 C161.344,409.279 172.199,413.853 183.543,417.338 L183.543,457.505 C183.543,468.314 192.302,477.071 203.103,477.071 L273.963,477.071 C284.772,477.071 293.531,468.314 293.531,457.505 L293.531,417.338 C304.876,413.852 315.73,409.279 326.041,403.804 L354.492,432.255 C358.165,435.927 363.141,437.984 368.328,437.984 C373.515,437.984 378.493,435.926 382.164,432.255 L432.27,382.149 C439.903,374.508 439.903,362.115 432.27,354.484 L403.805,326.018 C409.279,315.715 413.852,304.86 417.331,293.524 L457.513,293.524 C462.7,293.524 467.678,291.466 471.349,287.793 C475.014,284.121 477.08,279.144 477.08,273.957 L477.064,203.08 Z M238.532,362.683 C170.086,362.683 114.398,306.994 114.398,238.54 C114.398,170.094 170.086,114.406 238.532,114.406 C306.986,114.406 362.675,170.094 362.675,238.54 C362.675,306.994 306.986,362.683 238.532,362.683 Z" id="Shape"></path>
            <path d="M238.532,146.21 C187.62,146.21 146.203,187.627 146.203,238.539 C146.203,289.453 187.62,330.878 238.532,330.878 C289.446,330.878 330.871,289.453 330.871,238.539 C330.871,187.627 289.446,146.21 238.532,146.21 Z" id="Shape"></path>
        </g>
    </g>
</svg>
